assets/icons/action/new_custom18.svg

<?xml version="1.0"?><svg xmlns="http://www.w3.org/2000/svg" width="52" height="52" viewBox="0 0 52 52"><g fill="#fff"><path d="m31.4 15.3h8.2c0.6 0 1.1-0.5 1.1-1.1 0-0.3-0.1-0.5-0.3-0.8l-10.2-10.1c-0.3-0.2-0.5-0.3-0.8-0.3-0.6 0-1.1 0.5-1.1 1.1v8.1c0 1.7 1.4 3.1 3.1 3.1z m18.1 10.4l-0.9-0.9c-0.6-0.6-1.5-0.6-2.2 0l-11.9 11.9c-0.1 0.1 0 0.2 0 0.3v2.5c0 0.2 0 0.4 0.2 0.4h2.6c0.1 0 0.2-0.1 0.3-0.1l11.9-11.8c0.7-0.8 0.7-1.7 0-2.3z m-9.6 18.7h-7.1c-1.6 0-2.9-1.3-2.9-2.9v-5.4c0-0.8 0.2-1.6 0.9-2.1l9.5-9.5c0.3-0.3 0.5-0.7 0.5-1.1v-2c0-0.8-0.7-1.5-1.5-1.5h-11c-2.6 0-4.6-2.1-4.6-4.6v-10.8c0-0.8-0.7-1.5-1.6-1.5h-15.5c-2.5 0-4.6 2.1-4.6 4.6v36.8c0 2.5 2.1 4.6 4.6 4.6h29.4c2.2 0 4.2-1.6 4.6-3.7 0.1-0.4-0.3-0.9-0.7-0.9z m-31.7-27.6c0-0.8 0.7-1.5 1.5-1.5h6.2c0.9 0 1.5 0.7 1.5 1.5v1.5c0 0.8-0.7 1.5-1.5 1.5h-6.2c-0.9 0-1.5-0.7-1.5-1.5v-1.5z m15.5 19.9c0 0.8-0.7 1.5-1.5 1.5h-12.5c-0.9 0-1.5-0.7-1.5-1.5v-1.5c0-0.8 0.7-1.5 1.5-1.5h12.4c0.9 0 1.5 0.7 1.5 1.5v1.5z m3.1-9.2c0 0.8-0.7 1.5-1.5 1.5h-15.6c-0.9 0-1.5-0.7-1.5-1.5v-1.5c0-0.8 0.7-1.5 1.5-1.5h15.5c0.9 0 1.5 0.7 1.5 1.5v1.5z"></path></g></svg>

<svg xmlns="http://www.w3.org/2000/svg" x="0px" y="0px"
	 width="52px" height="52px" viewBox="0 0 52 52" enable-background="new 0 0 52 52" xml:space="preserve">
<g>
	<path fill="#FFFFFF" d="M31.4,15.3h8.2c0.6,0,1.1-0.5,1.1-1.1l0,0c0-0.3-0.1-0.5-0.3-0.8L30.2,3.3C29.9,3.1,29.7,3,29.4,3l0,0
		c-0.6,0-1.1,0.5-1.1,1.1v8.1C28.3,13.9,29.7,15.3,31.4,15.3z"/>
	<path fill="#FFFFFF" d="M49.5,25.7l-0.9-0.9c-0.6-0.6-1.5-0.6-2.2,0L34.5,36.7c-0.1,0.1,0,0.2,0,0.3v2.5c0,0.2,0,0.4,0.2,0.4h2.6
		c0.1,0,0.2-0.1,0.3-0.1L49.5,28C50.2,27.2,50.2,26.3,49.5,25.7z"/>
	<path fill="#FFFFFF" d="M39.9,44.4h-1.8h-3.6h-1.7c-1.6,0-2.9-1.3-2.9-2.9v-5.4c0-0.8,0.2-1.6,0.9-2.1l9.5-9.5
		c0.3-0.3,0.5-0.7,0.5-1.1v-2c0-0.8-0.7-1.5-1.5-1.5H28.3c-2.6,0-4.6-2.1-4.6-4.6V4.5C23.7,3.7,23,3,22.1,3H6.6C4.1,3,2,5.1,2,7.6
		v36.8C2,46.9,4.1,49,6.6,49h29.4c2.2,0,4.2-1.6,4.6-3.7C40.7,44.9,40.3,44.4,39.9,44.4z M8.2,16.8c0-0.8,0.7-1.5,1.5-1.5h6.2
		c0.9,0,1.5,0.7,1.5,1.5v1.5c0,0.8-0.7,1.5-1.5,1.5H9.7c-0.9,0-1.5-0.7-1.5-1.5V16.8z M23.7,36.7c0,0.8-0.7,1.5-1.5,1.5H9.7
		c-0.9,0-1.5-0.7-1.5-1.5v-1.5c0-0.8,0.7-1.5,1.5-1.5h12.4c0.9,0,1.5,0.7,1.5,1.5V36.7z M26.8,27.5c0,0.8-0.7,1.5-1.5,1.5H9.7
		c-0.9,0-1.5-0.7-1.5-1.5V26c0-0.8,0.7-1.5,1.5-1.5h15.5c0.9,0,1.5,0.7,1.5,1.5V27.5z"/>
</g>
</svg>
